dist/flags/s/KNA.svg

<svg width="16" height="12" viewBox="0 0 16 12" fill="none" xmlns="http://www.w3.org/2000/svg">
<mask id="mask0" mask-type="alpha" maskUnits="userSpaceOnUse" x="0" y="0" width="16" height="12">
<rect width="16" height="12" rx="-1" fill="white"/>
</mask>
<g mask="url(#mask0)">
<path fill-rule="evenodd" clip-rule="evenodd" d="M0 0V12H16V0H0Z" fill="#C51918"/>
<path fill-rule="evenodd" clip-rule="evenodd" d="M0 0V12L16 0H0Z" fill="#5EAA22"/>
<path d="M0.317932 13.976L0.679617 14.3795L1.1303 14.0787L19.2608 1.97692L19.8604 1.5767L19.3792 1.0399L16.7188 -1.92792L16.3571 -2.3314L15.9064 -2.03058L-2.22406 10.0712L-2.82365 10.4714L-2.34246 11.0082L0.317932 13.976Z" fill="#272727" stroke="#FFD018" stroke-width="1.25"/>
<path fill-rule="evenodd" clip-rule="evenodd" d="M6.04429 8.45911L5.49998 9.40643L5.15238 8.33928L4.07133 7.99564L4.97216 7.44532L4.86362 6.32911L5.7527 7.01267L6.67357 6.50222L6.41531 7.63922L7.15414 8.48952L6.04429 8.45911Z" fill="#F7FCFF"/>
<path fill-rule="evenodd" clip-rule="evenodd" d="M11.0443 5.1825L10.5 6.12982L10.1524 5.06266L9.07133 4.71903L9.97216 4.16871L9.86362 3.0525L10.7527 3.73605L11.6736 3.2256L11.4153 4.36261L12.1541 5.21291L11.0443 5.1825Z" fill="#F7FCFF"/>
</g>
</svg>

<svg width="16" height="12" fill="none" xmlns="http://www.w3.org/2000/svg">
  <mask id="a" maskUnits="userSpaceOnUse" x="0" y="0" width="16" height="12">
    <rect width="16" height="12" rx="-1" fill="#fff"/>
  </mask>
  <g mask="url(#a)">
    <path fill-rule="evenodd" clip-rule="evenodd" d="M0 0v12h16V0H0z" fill="#C51918"/>
    <path fill-rule="evenodd" clip-rule="evenodd" d="M0 0v12L16 0H0z" fill="#5EAA22"/>
    <path d="M.318 13.976l.362.403.45-.3L19.26 1.977l.6-.4-.48-.537-2.661-2.968-.362-.403-.45.3-18.131 12.102-.6.4.482.537 2.66 2.968z" fill="#272727" stroke="#FFD018" stroke-width="1.25"/>
    <path fill-rule="evenodd" clip-rule="evenodd" d="M6.044 8.46l-.544.946-.348-1.067-1.08-.343.9-.55-.108-1.117.889.684.92-.51-.258 1.136.74.85-1.11-.03zm5-3.277l-.544.947-.348-1.067-1.08-.344.9-.55-.108-1.116.889.683.92-.51-.258 1.137.74.85-1.11-.03z" fill="#F7FCFF"/>
  </g>
</svg>
